X: 18832
T: Imhewin
R: waltz
M: 3/4
K: Dmajor
z2D2E2|F2A2B2|F3 E {F}ED|EF ED B,2|A,2D3E|F2A2F2|B3A GF|A6|G6|
{^A}B2e2f2|g4e2|^d2f2e2|B4=c2|^c=c ^cd eg|b3a ^gb|(a6|a4)g2|
f2a2b2|f3f ed|ef ed B2|A2d3A|dc de fa|e'2d'3c'|^a6|b3^a bc'|
{c'}d'2{^a}b2g2|d2{=c'}^c'2{^a}b2|a2f2d2|B2=c'3b|ag fg ab|A3c {g}fe|e6|d3A de|
{f}a4fd|B4d2|AB {c}BA FD|A,6|D2F2A2|e2d3c|^A6|B4ef|
g2{a}gf ga|b2g3e|d6|c3A B=c|^c=c ^ce g^g|a^g ac' e'=g|=f6|fA Bc de|
{f}a4fd|B2ed cd|BA ^GA FD|A,6|D2F2A2|f2e3d|a6|g3f ga|
b2{c'}b^a bc'|d'2b2^g2|a2{b}a^g ab|d'2a2f2|g2{a}gf gb|a2B2c2|e6|d2z2ed|
K:A
ce ag ba|gb d'c' e'd'|c'e' c'a ec|{c}BA GA cA|BE ^DE GB|=dE ^DE B=d|cA, CE Ac|ea c'e' a'e'|
c'e' d'c' ba|gb dc ed|ce cA EC|B,A, G,A, CE|Fd cd BA|Ge ^de =dB|B6|A3G A^A|
K:E
Be {f}ee Bg|{a}gg Bb {c'}bb|ag ba fd|B^A cB =AF|EB, (3B,B,B, GB,|(3B,B,B, BB, (3B,B,B,|B,B, DB, FB,|BF dB fd|
eB (3BBB gB|(3BBB bB (3BBB|ag ba fd|B^A cB =AF|Ge (3eee Fc|(3ccc DB (3BBB|E2DE GB|=d3f ed|
K:A
ce ag ba|gb d'c' e'd'|c'e' c'a ec|BA GA cA|BE ^DE GB|=dE ^DE B=d|cA, CE Ac|ea c'e' a'e'|
c'e' d'c' ba|gb dc ed|ce cA EC|B,A, G,A, CE|Fd cd BA|GE ^DE =DG,|B,6|A,3B A=G|
K:D
F2A2B2|F3 E {F}ED|EF ED B,2|A,2D3E|F2A2F2|B3A GF|A6|G6|
{^A}B2e2f2|g4e2|^d2f2e2|B4=c2|^c=c ^cd eg|b3a ^gb|(a6|a4)g2|
f2a2b2|f3f ed|ef ed B2|A2d3A|dc de fa|e'2d'3c'|^a6|b3^a bc'|
{c'}d'2{^a}b2g2|d2{=c'}^c'2{^a}b2|a2f2d2|B2=c'3b|ag fg ab|A3c {g}fe|e6|d3A de|
{f}a4fd|B4d2|AB {c}BA FD|A,6|D2F2A2|e2d3c|^A6|B4ef|
g2{a}gf ga|b2g3e|d6|c3A B=c|^c=c ^ce g^g|a^g ac' e'=g|=f6|fA Bc de|
{f}a4fd|B2ed cd|BA ^GA FD|A,6|D2F2A2|f2e3d|a6|g3f ga|
b2{c'}b^a bc'|d'2b2^g2|a2{b}a^g ab|d'2a2f2|g2{a}gf gb|a2B2c2|e6|d2z4||

